X: 2
I: linebreak $
T: Casulle la Novele
T: for couples
C: 
N: Can be played with La Spagna
K: D minor
M: 6/4
L: 1/8
D12 | D12 | A,12 | G,12 | B,12 | A,12 | 
G,12 | G,12 | B,12 | C12 | D12 | D12 | 
F12 | E12 | D12 | F12 | G12 | G12 | 
C12 | D12 | C12 | C12 | G12 | G12 | 
F12 | F12 | G12 | C12 | B,12 | _E12 | 
D12 | D12 | G,12 | A,12 | C12 | D12 | 
F12 | E12 | D12 | C12 | B,12 | A,12 | 
G,12 | A,12 | G,12 |] 

